front/main/app/symbols/infobox-builder/section-block.svg

<svg width="30px" height="23px" viewBox="0 0 30 23" version="1.1"
     xmlns="http://www.w3.org/2000/svg">
    <g stroke="none" stroke-width="1" fill-rule="evenodd">
        <g transform="translate(-222.000000, -544.000000)">
            <g transform="translate(222.000000, 544.000000)">
                <path d="M0,0 L29.9920825,0 L29.9920825,12.5 L0,12.5 L0,0 Z M24.1666667,9 L27.5,5 L20.8333333,5 L24.1666667,9 Z M17.4298246,5 L4.90350877,5 C4.49603509,5 4.16666667,5.33525 4.16666667,5.75 L4.16666667,7.25 C4.16666667,7.66475 4.49603509,8 4.90350877,8 L17.4298246,8 C17.8372982,8 18.1666667,7.66475 18.1666667,7.25 L18.1666667,5.75 C18.1666667,5.33525 17.8372982,5 17.4298246,5 Z"/>
                <rect x="0" y="15" width="30" height="2.5"/>
                <rect x="0" y="20" width="30" height="2.5"/>
                <rect x="0" y="20" width="30" height="2.5"/>
            </g>
        </g>
    </g>
</svg>

<svg width="30" height="23" viewBox="0 0 30 23" xmlns="http://www.w3.org/2000/svg"><g fill-rule="evenodd"><path d="M0 0h29.992v12.5H0V0zm24.167 9L27.5 5h-6.667l3.334 4zM17.43 5H4.904c-.408 0-.737.335-.737.75v1.5c0 .415.33.75.737.75H17.43c.407 0 .737-.335.737-.75v-1.5c0-.415-.33-.75-.737-.75zM0 15h30v2.5H0zM0 20h30v2.5H0z"/><path d="M0 20h30v2.5H0z"/></g></svg>
